X: 43567
T: Young Dan's
R: jig
M: 6/8
K: Gmajor
|:gdB cBA|GBA GAE|DGB c3|BAG ABc|
B3 cBc|dge faf|g3 gdB|1 cBA GBd:|2 cBA GBA||
|:B3 dBA|GBd g3|=fge fdB|GBd gdA|
B3 cBc|dge (3fga f|g3 gdB|1 cBA GBA:|2 cBA GBd||

